src/icons/solid/metrics/metric-number.svg

<svg width="24" height="24" viewBox="0 0 24 24" fill="none" xmlns="http://www.w3.org/2000/svg">
<g clip-path="url(#clip0_4879_275)">
<path fill-rule="evenodd" clip-rule="evenodd" d="M12.642 1C12.9016 1 13.1505 1.09962 13.334 1.27696C13.5176 1.45429 13.6207 1.6948 13.6207 1.94559V9.2143H15.4733C15.7328 9.2143 15.9818 9.31393 16.1653 9.49126C16.3488 9.66859 16.4519 9.90911 16.4519 10.1599C16.4519 10.4107 16.3488 10.6512 16.1653 10.8285C15.9818 11.0059 15.7328 11.1055 15.4733 11.1055H12.6606H12.641H12.6224H9.80583C9.54627 11.1055 9.29735 11.0059 9.11381 10.8285C8.93028 10.6512 8.82717 10.4107 8.82717 10.1599C8.82717 9.90911 8.93028 9.66859 9.11381 9.49126C9.29735 9.31393 9.54627 9.2143 9.80583 9.2143H11.6633V4.73317C11.2984 4.87345 10.9091 4.94533 10.5163 4.94498H9.80779C9.54823 4.94498 9.2993 4.84536 9.11577 4.66803C8.93223 4.4907 8.82912 4.25018 8.82912 3.9994C8.82912 3.74861 8.93223 3.5081 9.11577 3.33077C9.2993 3.15344 9.54823 3.05381 9.80779 3.05381H10.5163C11.1495 3.05381 11.6633 2.55738 11.6633 1.94559C11.6633 1.6948 11.7664 1.45429 11.95 1.27696C12.1335 1.09962 12.3824 1 12.642 1ZM17.6567 12.8945H18.7195C19.2689 12.8943 19.8073 13.0436 20.273 13.3252C20.7387 13.6068 21.1129 14.0094 21.3529 14.4869C21.5928 14.9644 21.6888 15.4976 21.6298 16.0253C21.5709 16.5531 21.3593 17.0541 21.0194 17.4712C21.3293 17.7513 21.5762 18.09 21.7449 18.4663C21.9136 18.8425 22.0004 19.2483 22 19.6583V20.0006C22 20.7959 21.6731 21.5587 21.0911 22.1212C20.5091 22.6836 19.7198 22.9998 18.8967 23H17.4795C16.8375 22.9999 16.2113 22.8076 15.6871 22.4494C15.1629 22.0913 14.7664 21.5849 14.5524 21.0001C14.4659 20.7636 14.4803 20.5036 14.5922 20.2773C14.7042 20.0511 14.9046 19.877 15.1493 19.7935C15.3941 19.71 15.6632 19.7239 15.8974 19.832C16.1316 19.9402 16.3117 20.1338 16.3981 20.3703C16.5547 20.8015 16.9814 21.1079 17.4795 21.1079H18.8967C19.0472 21.108 19.1963 21.0795 19.3354 21.0238C19.4745 20.9682 19.6009 20.8867 19.7073 20.7838C19.8137 20.681 19.8981 20.5589 19.9557 20.4245C20.0132 20.2901 20.0428 20.146 20.0427 20.0006V19.6583C20.0427 19.0465 19.5298 18.5501 18.8967 18.5501H18.7195H18.1881C17.9285 18.5501 17.6796 18.4505 17.4961 18.2731C17.3125 18.0958 17.2094 17.8553 17.2094 17.6045C17.2094 17.3537 17.3125 17.1132 17.4961 16.9359C17.6796 16.7585 17.9285 16.6589 18.1881 16.6589H18.7195C18.9766 16.6589 19.2232 16.5602 19.405 16.3846C19.5868 16.2089 19.6889 15.9707 19.6889 15.7223C19.6889 15.4739 19.5868 15.2357 19.405 15.06C19.2232 14.8844 18.9766 14.7857 18.7195 14.7857H17.6567C17.4456 14.7855 17.2402 14.8519 17.0717 14.9748C16.9032 15.0977 16.7808 15.2703 16.723 15.4665C16.6488 15.7039 16.4811 15.9036 16.256 16.0226C16.0309 16.1416 15.7664 16.1705 15.5195 16.1029C15.2725 16.0353 15.063 15.8767 14.9359 15.6613C14.8088 15.4459 14.7744 15.1909 14.8401 14.9512C15.0141 14.359 15.3832 13.8378 15.8915 13.4666C16.3998 13.0954 17.0195 12.8946 17.6567 12.8945ZM5.10335 12.8945C4.46143 12.8945 3.8353 13.0868 3.3111 13.4447C2.7869 13.8027 2.3904 14.3088 2.17616 14.8935C2.1333 15.0106 2.11473 15.1347 2.12151 15.2587C2.12829 15.3828 2.16029 15.5043 2.21568 15.6164C2.27107 15.7285 2.34876 15.8289 2.44433 15.912C2.5399 15.995 2.65146 16.0591 2.77266 16.1005C2.89385 16.1419 3.0223 16.1599 3.15067 16.1533C3.27904 16.1468 3.40482 16.1159 3.52083 16.0624C3.63683 16.0088 3.74079 15.9338 3.82677 15.8414C3.91275 15.7491 3.97906 15.6413 4.02192 15.5242C4.10117 15.3083 4.24767 15.1213 4.44131 14.9891C4.63495 14.8569 4.86622 14.7858 5.10335 14.7857H6.57526C6.82607 14.7854 7.06932 14.8687 7.26407 15.0214C7.45882 15.1741 7.59317 15.387 7.64453 15.6242C7.69588 15.8614 7.66109 16.1084 7.54602 16.3237C7.43095 16.5391 7.24262 16.7095 7.01272 16.8064L3.85946 18.1397C3.30663 18.3735 2.83631 18.758 2.50607 19.246C2.17582 19.734 1.99996 20.3045 2 20.8876V22.0544C2 22.3052 2.10311 22.5457 2.28664 22.723C2.47018 22.9004 2.71911 23 2.97867 23H8.64513C8.90469 23 9.15362 22.9004 9.33716 22.723C9.52069 22.5457 9.6238 22.3052 9.6238 22.0544C9.6238 21.8036 9.52069 21.5631 9.33716 21.3858C9.15362 21.2085 8.90469 21.1088 8.64513 21.1088H3.95733V20.8876C3.95733 20.4469 4.22646 20.0488 4.64337 19.872L7.79761 18.5387C8.43978 18.268 8.96582 17.7918 9.28721 17.1902C9.60861 16.5887 9.70574 15.8985 9.56226 15.2359C9.41878 14.5733 9.04345 13.9786 8.49943 13.552C7.95541 13.1254 7.27591 12.8929 6.57526 12.8936H5.10335V12.8945Z" fill="#3C3B44"/>
</g>
<defs>
<clipPath id="clip0_4879_275">
<rect width="24" height="24" fill="white"/>
</clipPath>
</defs>
</svg>

<svg xmlns="http://www.w3.org/2000/svg" width="24" height="24" fill="none" viewBox="0 0 24 24"><g clip-path="url(#a)"><path fill="currentColor" fill-rule="evenodd" d="M12.642 1c.26 0 .508.1.692.277a.93.93 0 0 1 .287.669v7.268h1.852c.26 0 .509.1.692.277a.93.93 0 0 1 .287.669.93.93 0 0 1-.287.668 1 1 0 0 1-.692.277H9.806c-.26 0-.509-.1-.692-.277a.93.93 0 0 1-.287-.668.93.93 0 0 1 .287-.669 1 1 0 0 1 .692-.277h1.857v-4.48a3.2 3.2 0 0 1-1.147.211h-.708c-.26 0-.509-.1-.692-.277a.93.93 0 0 1-.287-.669.93.93 0 0 1 .287-.668 1 1 0 0 1 .692-.277h.708c.633 0 1.147-.497 1.147-1.108a.93.93 0 0 1 .287-.669A1 1 0 0 1 12.642 1m5.015 11.895h1.063c.549 0 1.087.149 1.553.43s.84.684 1.08 1.162a2.74 2.74 0 0 1-.334 2.984c.31.28.557.619.726.995.169.377.255.782.255 1.192v.343c0 .795-.327 1.558-.909 2.12a3.16 3.16 0 0 1-2.194.879H17.48a3.2 3.2 0 0 1-1.793-.55A3 3 0 0 1 14.552 21a.92.92 0 0 1 .04-.723.97.97 0 0 1 .557-.483 1 1 0 0 1 .748.038.96.96 0 0 1 .501.538c.157.431.583.738 1.082.738h1.417a1.18 1.18 0 0 0 .81-.324q.161-.156.249-.36c.057-.134.087-.278.087-.423v-.343c0-.611-.513-1.108-1.146-1.108h-.709c-.26 0-.508-.1-.692-.277a.93.93 0 0 1-.287-.668.93.93 0 0 1 .287-.67 1 1 0 0 1 .692-.276h.532a1 1 0 0 0 .685-.274.92.92 0 0 0 .284-.663.92.92 0 0 0-.284-.662 1 1 0 0 0-.686-.274h-1.062a1 1 0 0 0-.585.189.94.94 0 0 0-.349.492.95.95 0 0 1-.467.556 1 1 0 0 1-.736.08.97.97 0 0 1-.584-.442.92.92 0 0 1-.096-.71 2.83 2.83 0 0 1 1.052-1.484 3 3 0 0 1 1.765-.572m-12.554 0a3.2 3.2 0 0 0-1.792.55 3.02 3.02 0 0 0-1.135 1.448.92.92 0 0 0 .04.723 1 1 0 0 0 .228.296 1 1 0 0 0 .707.241 1 1 0 0 0 .676-.312.9.9 0 0 0 .195-.317c.08-.216.226-.403.42-.535s.424-.203.661-.203h1.472c.251 0 .494.083.69.235a1.03 1.03 0 0 1 .281 1.303 1.08 1.08 0 0 1-.533.482L3.859 18.14a3.1 3.1 0 0 0-1.353 1.106A2.93 2.93 0 0 0 2 20.888v1.166c0 .251.103.492.287.669a1 1 0 0 0 .692.277h5.666c.26 0 .509-.1.692-.277a.93.93 0 0 0 .287-.669.93.93 0 0 0-.287-.668 1 1 0 0 0-.692-.277H3.957v-.221c0-.441.27-.84.686-1.016l3.155-1.333a3 3 0 0 0 1.49-1.349 2.86 2.86 0 0 0 .274-1.954A2.93 2.93 0 0 0 8.5 13.552a3.1 3.1 0 0 0-1.924-.658z" clip-rule="evenodd"/></g><defs><clipPath id="a"><path fill="currentColor" d="M0 0h24v24H0z"/></clipPath></defs></svg>
